icons/line/mail.svg

<svg width="24" height="24" viewBox="0 0 24 24" fill="none" xmlns="http://www.w3.org/2000/svg">
<path d="M7 9L10.7506 12.0005C11.481 12.5848 12.519 12.5848 13.2494 12.0005L17 9M21 17L21 7C21 5.89543 20.1046 5 19 5L5 5C3.89543 5 3 5.89543 3 7L3 17C3 18.1046 3.89543 19 5 19L19 19C20.1046 19 21 18.1046 21 17Z" stroke="currentColor" stroke-width="2" stroke-linecap="round" stroke-linejoin="round"/>
</svg>

<svg width="24" height="24" fill="none" xmlns="http://www.w3.org/2000/svg"><path d="M7 9l3.75 3a2 2 0 002.5 0L17 9m4 8V7a2 2 0 00-2-2H5a2 2 0 00-2 2v10a2 2 0 002 2h14a2 2 0 002-2z" stroke="currentColor" stroke-width="2" stroke-linecap="round" stroke-linejoin="round"/></svg>
